!!!OTL: Ueba d' Alma, da gibts Kalma, da gibts weixlbraune Kueah
!!!ARE: Europa, Mitteleuropa, Deutschland, Bayernalpe
!!!SCT: D0073
!!!YEM: Copyright 1995, estate of Helmut Schaffrath.
**kern
*ICvox
*Ivox
*M3/4
*k[f#c#]
*D:
{8.d
16d
=1
8d
8F#
4A
8.d
16d
=2
4c#
4G}
{8c#
8c#
=3
4c#
4d
8e
8e
=4
8f#
8dd
4a}
{8g
8g
=5
4f#
4A
4f#
=6
4.g
8f#}
{8e
8d
=7
4c#
8G
8A
8c#
8G
=8
2F#}
{8.d
16d
=9
8d
8F#
4A
8.d
16d
=10
4c#
4G}
{8c#
8c#
=11
4c#
4d
4e
=12
8f#
8dd
4a}
{8g
8g
=13
4f#
4A
4f#
=14
4.g
8f#}
{8e
8d
=15
4c#
8G
8A
8c#
8A
=16
2F#}
==
!!!AGN: Kilt - Lied
!! Unterstimme in Terzen und Sexten (ergaenzt die Skala zur Heptatonik
!!    Ionisch) ; Grundton in der zweigestrichenen Oktave
!!    Inzipit = Variante zum Lied
!!!ONB: ESAC (Essen Associative Code) Database: DVA
!!!AMT: simple triple
!!!AIN: vox
!!!EED: Helmut Schaffrath
!!!EEV: 1.0
*-
